X:98
T:T047D- Hey, my Kitten
S:Convivial Songster, 1782
Q:1/4=120
L:1/4
M:9/4
K:G
c2eAAAAAA|c2e AAAB2G|cceA2AA2A|B2dd2dB2G||\
ccee2e=f2d|ccee2e=f2d|ccee3/2=f/ee3/2 =f/e|=ffdd2dB2G|]

